X: 3
T:Quadrille,A. JMT.003
M:6/8
L:1/8
Q:100
S:John Moore,Tyneside,1841. (02a)
R:Quadrille
O:England
A:Northumbria
H:1841
Z:vmp.John Adams
K:D
A | def dcB | A2 G F2G | A2 d A2 d | cee e2A |!
 dfe dcB | A2G F2A | f2dedc | ddd d2  :||:!
 g | f2g agf | agf agf | e2f gfe | gfegfe |!
 f2a agf | e2f gfe | fed edc | ddd d2 :||
